X: 612
T:Johnny Cronin's
R:reel
S:Mike Rafferty
N:Mike said there is a nice part in this one where the fiddle goes low.
Z:Lesl Harker
N:Posted to the woodenflute mailing list December 2002
M:C|
K:D
d3B|:AFFE FEDE|F2FE FAdB|AFFE FEDE|FBBA FEE2|
AF~F2 FEDE|F2FE FAdB|A2FB AFDE|1 FAEA D2zB:|2 FAEA D2zF||
A~A2B AF~F2|ABde feez|fded BcdB|ABde fedB|
A~A2B AF~F2|ABde fe~e2|fzaf efdf|afef d3B|
|A~A2B AF~F2|ABde feez|fded BcdB|ABde fedB|
AzFB AF~F2|ABde feez|faaf ezdf|afea d4||
<end>
<start>
